media/icons/medium_untoggle.svg

<svg xmlns="http://www.w3.org/2000/svg" fill="#F9AE4D" width="13.014" height="16.124"><rect id="backgroundrect" width="100%" height="100%" x="0" y="0" fill="none" stroke="none"/>
  
  
<g class="currentLayer" style=""><title>Layer 1</title><path d="M0.0279998779296875,2.5190000534057617 c2.447000026702881,-0.015000000596046448 4.647000312805176,-0.6940000653266907 6.447000026702881,-2.5190000534057617 c1.7929999828338623,1.809999942779541 4,2.503999948501587 6.504000186920166,2.51200008392334 c0,0.5080000162124634 -0.014000000432133675,0.9800000190734863 0,1.4520000219345093 c0.04200000315904617,1.6460000276565552 0.04200000315904617,3.2920000553131104 -0.24000000953674316,4.915999889373779 c-0.49799999594688416,2.8980000019073486 -1.975000023841858,5.079999923706055 -4.583000183105469,6.419000148773193 c-0.4780000150203705,0.24300001561641693 -0.9850000143051147,0.45000001788139343 -1.4769999980926514,0.6580000519752502 a0.48000001907348633,0.48000001907348633 0 0 1 -0.33000001311302185,0.021000001579523087 c-2.1659998893737793,-0.7719999551773071 -3.9800000190734863,-2.009999990463257 -5.125999927520752,-4.099999904632568 A9.041999816894531,9.041999816894531 0 0 1 0.10500001907348633,8 c-0.09800000488758087,-1.7669999599456787 -0.07700000703334808,-3.5420000553131104 -0.10500000417232513,-5.316999912261963 c0,-0.05000000447034836 0.014000000432133675,-0.09300000220537186 0.02800000086426735,-0.1639999896287918 z" id="svg_1" class="" transform=""/><path d="M2.951000213623047,4.454999923706055 h1.7070000171661377 l1.8020000457763672,4.396999835968018 h0.07700000703334808 l1.8029999732971191,-4.396999835968018 h1.7059999704360962 V11 h-1.3420000076293945 v-4.260000228881836 h-0.05400000512599945 l-1.694000005722046,4.228000164031982 h-0.9140000343322754 l-1.694000005722046,-4.24399995803833 h-0.055000003427267075 V11 H2.951000213623047 V4.454999923706055 z" fill="#fff" id="svg_2" class="" transform=""/></g></svg>

<?xml version="1.0" encoding="UTF-8" standalone="no"?>
<svg
   fill="#F9AE4D"
   width="13.014"
   height="16.124"
   version="1.1"
   id="svg383"
   sodipodi:docname="medium_untoggle.svg"
   inkscape:version="1.1.1 (3bf5ae0d25, 2021-09-20)"
   xmlns:inkscape="http://www.inkscape.org/namespaces/inkscape"
   xmlns:sodipodi="http://sodipodi.sourceforge.net/DTD/sodipodi-0.dtd"
   xmlns="http://www.w3.org/2000/svg"
   xmlns:svg="http://www.w3.org/2000/svg">
  <defs
     id="defs387" />
  <sodipodi:namedview
     id="namedview385"
     pagecolor="#ffffff"
     bordercolor="#666666"
     borderopacity="1.0"
     inkscape:pageshadow="2"
     inkscape:pageopacity="0.0"
     inkscape:pagecheckerboard="0"
     showgrid="false"
     inkscape:zoom="51.600097"
     inkscape:cx="3.1685987"
     inkscape:cy="8.0716902"
     inkscape:window-width="2560"
     inkscape:window-height="1017"
     inkscape:window-x="1912"
     inkscape:window-y="-8"
     inkscape:window-maximized="1"
     inkscape:current-layer="svg383" />
  <rect
     id="backgroundrect"
     width="100%"
     height="100%"
     x="0"
     y="0"
     fill="none"
     stroke="none" />
  <g
     class="currentLayer"
     id="g381"
     transform="matrix(0.9,0,0,0.9,0.6499567,0.79988914)">
    <title
       id="title377">Layer 1</title>
    <path
       d="M 0.02799988,2.5190001 C 2.4749999,2.5040001 4.6750002,1.825 6.4749999,0 8.2679999,1.8099999 10.475,2.5039999 12.979,2.5120001 c 0,0.508 -0.014,0.98 0,1.452 0.042,1.646 0.042,3.2920001 -0.24,4.9159999 -0.498,2.898 -1.975,5.08 -4.5830001,6.419 -0.478,0.243 -0.985,0.45 -1.477,0.658 a 0.48000002,0.48000002 0 0 1 -0.33,0.021 C 4.183,15.206 2.3689999,13.968 1.223,11.878 A 9.0419998,9.0419998 0 0 1 0.10500002,8 C 0.00700001,6.233 0.02800001,4.4579999 1.4901161e-8,2.6830001 c 0,-0.05 0.01400000509884,-0.093 0.02799986509884,-0.164 z"
       id="svg_1"
       class="" />
    <path
       d="m 2.9510002,4.4549999 h 1.707 l 1.8020001,4.3969999 h 0.077 l 1.803,-4.3969999 H 10.046 V 11 H 8.7040002 V 6.7399998 h -0.054 l -1.694,4.2280002 h -0.914 l -1.694,-4.244 h -0.055 V 11 h -1.342 z"
       fill="#ffffff"
       id="svg_2"
       class="" />
  </g>
</svg>
